site/static/img/logo.svg

<svg height="52" viewBox="0 0 71 52" width="71" xmlns="http://www.w3.org/2000/svg"><g fill="#e6232c" fill-rule="evenodd" transform=""><path d="m23.8914939 3.42368831h.0598631l-.0282727.0590045 11.6457869 21.80639639 11.645787-21.80639639-.0282727-.0590045h.059863l1.8284429-3.42368831 1.6487575 3.42368831h.0014425l6.8907393 14.39800119s13.3088251 27.8109603 13.3088251 27.8109603c.1851186.3865271.0182714.7002978-.3721605.7003929h-2.1233344c-.3909128 0-.8577963-.3138658-1.0429149-.7003929l-3.5504304-7.4192443-14.8585322-31.04816595-12.7536136 23.88045195-.6207964 1.2890104-.0338022-.0633347-.0338021.0633347-.6207965-1.2890104-12.7534693-23.88045195-14.94580236 31.23060405-3.60086926 7.5244532c-.18497435.386527-.65224254.7003453-1.04291491.7003929h-2.12323818c-.3905762 0-.55751952-.3138183-.37254517-.7003929l20.33727338-42.49660849h.0016829l1.6487095-3.42368831z"/><path d="m35.4999882 44.4812399 13.1342074-24.757102.5750028 1.2019956.030718-.0560402 5.0262353 10.5724735s9.4381102 19.8536313 9.4381102 19.8536313c.184788.3884084.0182388.7037541-.371976.7038019h-2.1190631c-.3902148 0-.8567446-.3153457-1.0410527-.7038019l-3.6343252-7.6439421-7.9751647-16.776823-12.0180875 22.653012-.990656 2.0708101-13.1164485-24.7238221-7.9755967 16.776823-3.6338932 7.6439421c-.1846441.3884084-.6510299.7037541-1.04105273.7038019h-2.11939906c-.38992681 0-.55657204-.3153457-.37187997-.7038019l14.46429746-30.4261048.030862.0560402.5750028-1.2019956z"/></g></svg>

<svg width="71px" height="52px" viewBox="0 0 71 52" version="1.1" xmlns="http://www.w3.org/2000/svg" xmlns:xlink="http://www.w3.org/1999/xlink">
    <g id="All" stroke="none" stroke-width="1" fill="none" fill-rule="evenodd">
        <g id="About" transform="translate(-120.000000, -42.000000)" fill="#E6232C">
            <g id="Page-1" transform="translate(120.000000, 42.000000)">
                <path d="M23.8914939,3.42368831 L23.951357,3.42368831 L23.9230843,3.48269281 L35.5688712,25.2890892 L47.2146582,3.48269281 L47.1863855,3.42368831 L47.2462485,3.42368831 L49.0746914,0 L50.7234489,3.42368831 L50.7248914,3.42368831 L57.6156307,17.8216895 C57.6156307,17.8216895 70.9244558,45.6326498 70.9244558,45.6326498 C71.1095744,46.0191769 70.9427272,46.3329476 70.5522953,46.3330427 L68.4289609,46.3330427 C68.0380481,46.3330427 67.5711646,46.0191769 67.386046,45.6326498 L63.8356156,38.2134055 L48.9770834,7.16523955 L36.2234698,31.0456915 L35.6026734,32.3347019 L35.5688712,32.2713672 L35.5350691,32.3347019 L34.9142726,31.0456915 L22.1608033,7.16523955 L7.21500094,38.3958436 L3.61413168,45.9202968 C3.42915733,46.3068238 2.96188914,46.6206421 2.57121677,46.6206897 L0.447978585,46.6206897 C0.0574023861,46.6206897 -0.109540931,46.3068714 0.0754334183,45.9202968 L20.4127068,3.42368831 L20.4143897,3.42368831 L22.0630992,0 L23.8914939,3.42368831 Z" id="Fill-1"></path>
                <path d="M35.4999882,44.4812399 L48.6341956,19.7241379 L49.2091984,20.9261335 L49.2399164,20.8700933 L54.2661517,31.4425668 C54.2661517,31.4425668 63.7042619,51.2961981 63.7042619,51.2961981 C63.8890499,51.6846065 63.7225007,51.9999522 63.3322859,52 L61.2132228,52 C60.823008,52 60.3564782,51.6846543 60.1721701,51.2961981 L56.5378449,43.652256 L48.5626802,26.875433 L36.5445927,49.528445 L35.5539367,51.5992551 L22.4374882,26.875433 L14.4618915,43.652256 L10.8279983,51.2961981 C10.6433542,51.6846065 10.1769684,51.9999522 9.78694557,52 L7.66754651,52 C7.2776197,52 7.11097447,51.6846543 7.29566654,51.2961981 L21.759964,20.8700933 L21.790826,20.9261335 L22.3658288,19.7241379 L35.4999882,44.4812399 Z" id="Fill-2"></path>
            </g>
        </g>
    </g>
</svg>
